release/img/logo-leaf.svg

<svg width="26" height="46" viewBox="0 0 26 46" fill="none" xmlns="http://www.w3.org/2000/svg">
<path fill-rule="evenodd" clip-rule="evenodd" d="M13.0303 35.6735L4.05308 26.9732H4.04042L3.79984 26.7397C1.36659 24.3737 0 21.1674 0 17.8245C0 14.4815 1.36659 11.2752 3.79984 8.90914L13.005 0L22.7546 9.48671C24.8614 11.8117 26.0162 14.8061 25.9998 17.9022C25.9835 20.9984 24.7972 23.9812 22.6659 26.2851L22.1215 26.8258L13.0303 35.6735ZM12.9923 5.16115L6.47148 11.502L6.44616 11.416C5.58813 12.2457 4.90802 13.2321 4.44511 14.3183C3.98219 15.4046 3.74567 16.5691 3.7492 17.7446C3.74712 18.1554 3.77249 18.5659 3.82517 18.9734L15.5247 7.61884L12.9923 5.16115ZM20.6278 12.792L7.76299 25.3757L6.6994 24.3558L6.47148 24.1469C6.04677 23.7216 5.66123 23.2611 5.31926 22.7706L18.2343 10.2363L19.5005 11.4652C19.9251 11.8661 20.3031 12.3111 20.6278 12.792ZM13.005 30.4877L19.5258 24.1469C20.5283 23.1819 21.2893 22.0064 21.7503 20.7112C22.2113 19.4159 22.3599 18.0353 22.1848 16.6755L10.4726 28.03L13.005 30.4877Z" fill="#23873C"/>
<path d="M22.7041 31.3838C24.1419 29.8019 25.1561 27.8927 25.6548 25.8286H25.7929C26.1437 27.7319 26.0478 29.6888 25.5125 31.5501C24.9772 33.4113 24.0166 35.1278 22.7041 36.5686L22.1641 37.1118L13.1487 46L4.00768 37.0254C2.54134 35.5759 1.45171 33.8005 0.830994 31.8494C0.210277 29.8983 0.0767394 27.8289 0.441682 25.8163H0.592358C1.13456 28.0992 2.31792 30.1865 4.00768 31.8406C4.08075 31.9248 4.16052 32.0033 4.24625 32.0751L13.1487 40.8276L22.1641 31.9393L22.7041 31.3838Z" fill="#23873C"/>
</svg>

<svg xmlns="http://www.w3.org/2000/svg" width="26" height="46" fill="none" viewBox="0 0 26 46">
  <path fill="#23873C" fill-rule="evenodd" d="m13.03 35.673-8.977-8.7H4.04l-.24-.233C1.367 24.374 0 21.167 0 17.825c0-3.343 1.367-6.55 3.8-8.916L13.005 0l9.75 9.487c2.106 2.325 3.261 5.32 3.245 8.415a12.441 12.441 0 0 1-3.334 8.383l-.544.54-9.092 8.848Zm-.038-30.512-6.52 6.341-.026-.086a8.885 8.885 0 0 0-2 2.902 8.67 8.67 0 0 0-.697 3.427c-.002.41.023.82.076 1.228l11.7-11.354-2.533-2.458Zm7.636 7.631L7.763 25.376l-1.064-1.02-.228-.21c-.424-.424-.81-.885-1.152-1.375l12.915-12.535 1.266 1.23c.425.4.803.845 1.128 1.326Zm-7.623 17.696 6.52-6.341a8.927 8.927 0 0 0 2.225-3.436 8.71 8.71 0 0 0 .435-4.035L10.473 28.03l2.532 2.458Z" clip-rule="evenodd"/>
  <path fill="#23873C" d="M22.704 31.384a12.693 12.693 0 0 0 2.95-5.555h.139a12.51 12.51 0 0 1-.28 5.721 12.643 12.643 0 0 1-2.809 5.019l-.54.543L13.15 46l-9.141-8.975A12.69 12.69 0 0 1 .83 31.85a12.522 12.522 0 0 1-.39-6.033h.151a12.463 12.463 0 0 0 3.416 6.025c.073.084.153.162.238.234l8.903 8.753 9.015-8.889.54-.555Z"/>
</svg>
